austria/municipalities/41618.svg

<?xml version="1.0" encoding="UTF-8"?>
<!DOCTYPE svg PUBLIC "-//W3C//DTD SVG 1.1//EN" "http://www.w3.org/Graphics/SVG/1.1/DTD/svg11.dtd">
<svg xmlns="http://www.w3.org/2000/svg" version="1.1" width="166px" height="207px" style="shape-rendering:geometricPrecision; text-rendering:geometricPrecision; image-rendering:optimizeQuality; fill-rule:evenodd; clip-rule:evenodd" xmlns:xlink="http://www.w3.org/1999/xlink">
<g><path style="opacity:1" fill="#000000" d="M -0.5,-0.5 C 54.8333,-0.5 110.167,-0.5 165.5,-0.5C 165.5,44.1667 165.5,88.8333 165.5,133.5C 157.475,172.524 134.142,196.858 95.5,206.5C 86.8333,206.5 78.1667,206.5 69.5,206.5C 30.0061,196.67 6.67281,171.67 -0.5,131.5C -0.5,87.5 -0.5,43.5 -0.5,-0.5 Z"/></g>
<g><path style="opacity:1" fill="#fea700" d="M 3.5,3.5 C 56.1667,3.5 108.833,3.5 161.5,3.5C 161.667,47.8346 161.5,92.1679 161,136.5C 160.64,138.608 159.973,140.608 159,142.5C 147.112,139.172 135.612,140.339 124.5,146C 120.887,146.884 117.22,147.384 113.5,147.5C 103.542,145.681 93.7092,143.347 84,140.5C 73.1341,143.092 62.3007,145.758 51.5,148.5C 43.5063,146.001 35.5063,143.501 27.5,141C 23.5,140.333 19.5,140.333 15.5,141C 12.0606,142.09 8.72731,143.256 5.5,144.5C 5.54287,141.09 5.04287,137.757 4,134.5C 3.50001,90.8346 3.33334,47.1679 3.5,3.5 Z"/></g>
<g><path style="opacity:1" fill="#000000" d="M 79.5,15.5 C 104.088,18.3339 112.921,31.6672 106,55.5C 100.47,63.3451 92.9704,67.6784 83.5,68.5C 83.8303,75.5316 83.497,82.5316 82.5,89.5C 81.914,89.2907 81.414,88.9574 81,88.5C 80.5004,81.8417 80.3337,75.175 80.5,68.5C 65.2023,66.5367 57.2023,57.87 56.5,42.5C 57.3472,27.6552 65.0138,18.6552 79.5,15.5 Z"/></g>
<g><path style="opacity:1" fill="#e10a15" d="M 75.5,18.5 C 77.1667,18.5 78.8333,18.5 80.5,18.5C 80.6658,23.1785 80.4992,27.8452 80,32.5C 75.4486,29.8044 70.9486,26.971 66.5,24C 69.2984,21.6955 72.2984,19.8622 75.5,18.5 Z"/></g>
<g><path style="opacity:1" fill="#e10a15" d="M 83.5,18.5 C 89.0992,18.5753 94.0992,20.4087 98.5,24C 94.5,26.6667 90.5,29.3333 86.5,32C 85.552,32.4828 84.552,32.6495 83.5,32.5C 83.5,27.8333 83.5,23.1667 83.5,18.5 Z"/></g>
<g><path style="opacity:1" fill="#e10a15" d="M 63.5,26.5 C 68.8061,29.488 74.1394,32.488 79.5,35.5C 80.8333,40.1667 80.8333,44.8333 79.5,49.5C 72.6676,44.9161 65.6676,40.5827 58.5,36.5C 59.6528,32.861 61.3195,29.5277 63.5,26.5 Z"/></g>
<g><path style="opacity:1" fill="#e10a15" d="M 100.5,26.5 C 103.119,29.5618 105.119,33.0618 106.5,37C 99.2988,41.6983 91.9654,46.1983 84.5,50.5C 83.1667,45.8333 83.1667,41.1667 84.5,36.5C 90.1188,33.5326 95.4521,30.1993 100.5,26.5 Z"/></g>
<g><path style="opacity:1" fill="#e10a15" d="M 58.5,41.5 C 65.7567,45.3774 72.9234,49.3774 80,53.5C 80.8275,57.8713 80.6609,62.2047 79.5,66.5C 66.1651,63.5008 59.1651,55.1675 58.5,41.5 Z"/></g>
<g><path style="opacity:1" fill="#e10a15" d="M 105.5,41.5 C 106.881,49.9352 103.881,56.7685 96.5,62C 92.5249,64.5759 88.1915,66.0759 83.5,66.5C 83.5,62.1667 83.5,57.8333 83.5,53.5C 91.4067,50.5467 98.7401,46.5467 105.5,41.5 Z"/></g>
<g><path style="opacity:1" fill="#000000" d="M 41.5,73.5 C 59.8998,73.0711 70.5665,81.9044 73.5,100C 71.9561,114.709 63.9561,123.543 49.5,126.5C 48.5067,131.12 48.1734,135.786 48.5,140.5C 47.1667,140.5 45.8333,140.5 44.5,140.5C 44.8266,135.786 44.4933,131.12 43.5,126.5C 29.457,123.284 21.457,114.451 19.5,100C 21.2991,86.3831 28.6324,77.5498 41.5,73.5 Z"/></g>
<g><path style="opacity:1" fill="#000000" d="M 112.5,73.5 C 127.789,72.0555 138.289,78.3888 144,92.5C 146.73,110.726 139.23,122.059 121.5,126.5C 120.507,131.12 120.173,135.786 120.5,140.5C 119.167,140.5 117.833,140.5 116.5,140.5C 116.827,135.786 116.493,131.12 115.5,126.5C 95.9773,121.464 88.8107,109.131 94,89.5C 98.1668,81.8318 104.333,76.4985 112.5,73.5 Z"/></g>
<g><path style="opacity:1" fill="#00612a" d="M 42.5,75.5 C 43.8048,77.3972 44.4714,79.7305 44.5,82.5C 44.1667,84.8333 43.8333,87.1667 43.5,89.5C 39.2958,86.8003 34.9625,84.3003 30.5,82C 34.1574,79.0078 38.1574,76.8412 42.5,75.5 Z"/></g>
<g><path style="opacity:1" fill="#00612a" d="M 120.5,75.5 C 125.547,76.796 130.214,78.9627 134.5,82C 130.167,84.5 125.833,87 121.5,89.5C 120.507,84.8804 120.173,80.2137 120.5,75.5 Z"/></g>
<g><path style="opacity:1" fill="#00612a" d="M 48.5,76.5 C 53.9251,76.3784 58.5918,78.2117 62.5,82C 58.1667,84.8333 53.8333,87.6667 49.5,90.5C 48.5067,85.8804 48.1734,81.2137 48.5,76.5 Z"/></g>
<g><path style="opacity:1" fill="#00612a" d="M 110.5,76.5 C 112.5,76.5 114.5,76.5 116.5,76.5C 116.827,81.2137 116.493,85.8804 115.5,90.5C 111.167,87.6667 106.833,84.8333 102.5,82C 105.07,79.9131 107.737,78.0798 110.5,76.5 Z"/></g>
<g><path style="opacity:1" fill="#00612a" d="M 27.5,84.5 C 33.1025,86.9693 38.4358,89.9693 43.5,93.5C 44.8333,98.1667 44.8333,102.833 43.5,107.5C 37.1322,103.302 30.6322,99.3017 24,95.5C 23.6571,91.3617 24.8238,87.695 27.5,84.5 Z"/></g>
<g><path style="opacity:1" fill="#00612a" d="M 64.5,84.5 C 67.9423,87.3846 69.7756,91.0512 70,95.5C 63.0845,99.3739 56.2512,103.374 49.5,107.5C 48.3391,103.205 48.1725,98.8713 49,94.5C 54.3414,91.3036 59.5081,87.9703 64.5,84.5 Z"/></g>
<g><path style="opacity:1" fill="#00612a" d="M 99.5,84.5 C 105.114,87.6076 110.614,90.941 116,94.5C 116.828,98.8713 116.661,103.205 115.5,107.5C 108.5,103.333 101.5,99.1667 94.5,95C 95.5012,91.165 97.1679,87.665 99.5,84.5 Z"/></g>
<g><path style="opacity:1" fill="#00612a" d="M 135.5,84.5 C 139.066,86.5916 141.399,89.7583 142.5,94C 135.5,98.5 128.5,103 121.5,107.5C 120.167,102.833 120.167,98.1667 121.5,93.5C 126.231,90.4758 130.898,87.4758 135.5,84.5 Z"/></g>
<g><path style="opacity:1" fill="#00612a" d="M 22.5,98.5 C 29.7634,102.58 36.9301,106.914 44,111.5C 44.4988,115.486 44.6655,119.486 44.5,123.5C 30.1251,121.454 22.7917,113.121 22.5,98.5 Z"/></g>
<g><path style="opacity:1" fill="#00612a" d="M 94.5,98.5 C 101.304,103.073 108.304,107.406 115.5,111.5C 116.491,115.445 116.824,119.445 116.5,123.5C 108.748,123.206 102.581,119.872 98,113.5C 95.357,108.612 94.1903,103.612 94.5,98.5 Z"/></g>
<g><path style="opacity:1" fill="#00612a" d="M 141.5,98.5 C 143.132,110.36 138.132,118.527 126.5,123C 124.527,123.495 122.527,123.662 120.5,123.5C 120.334,119.486 120.501,115.486 121,111.5C 127.982,107.267 134.816,102.934 141.5,98.5 Z"/></g>
<g><path style="opacity:1" fill="#00612a" d="M 68.5,99.5 C 69.7251,100.152 70.3917,101.319 70.5,103C 68.1171,115.218 60.7838,122.052 48.5,123.5C 48.1758,119.445 48.5091,115.445 49.5,111.5C 56.0336,107.738 62.3669,103.738 68.5,99.5 Z"/></g>
<g><path style="opacity:1" fill="#fefffe" d="M -0.5,131.5 C 6.67281,171.67 30.0061,196.67 69.5,206.5C 46.1667,206.5 22.8333,206.5 -0.5,206.5C -0.5,181.5 -0.5,156.5 -0.5,131.5 Z"/></g>
<g><path style="opacity:1" fill="#fefffe" d="M 165.5,133.5 C 165.5,157.833 165.5,182.167 165.5,206.5C 142.167,206.5 118.833,206.5 95.5,206.5C 134.142,196.858 157.475,172.524 165.5,133.5 Z"/></g>
<g><path style="opacity:1" fill="#002b72" d="M 17.5,142.5 C 20.5184,142.335 23.5184,142.502 26.5,143C 34.9192,146.377 43.5859,148.877 52.5,150.5C 62.7538,148.062 72.9204,145.395 83,142.5C 89.6376,143.711 96.1376,145.544 102.5,148C 108.776,149.424 115.109,149.758 121.5,149C 127.905,147.198 134.239,145.198 140.5,143C 145.5,142.333 150.5,142.333 155.5,143C 157.18,143.347 158.18,144.347 158.5,146C 157.532,150.442 155.532,154.276 152.5,157.5C 151.833,157.167 151.167,156.833 150.5,156.5C 138.213,159.424 125.88,162.091 113.5,164.5C 103.582,161.854 93.582,159.521 83.5,157.5C 73.5791,159.684 63.5791,161.351 53.5,162.5C 46.0589,162.452 39.0589,160.619 32.5,157C 25.6185,154.746 18.9519,155.246 12.5,158.5C 10.0854,155.621 8.41874,152.288 7.5,148.5C 10.2386,145.466 13.5719,143.466 17.5,142.5 Z"/></g>
<g><path style="opacity:1" fill="#fea700" d="M 20.5,157.5 C 24.2198,157.564 27.8865,158.064 31.5,159C 38.1962,162.788 45.3628,164.955 53,165.5C 62.9367,164.058 72.7701,162.058 82.5,159.5C 85.8262,160.047 89.1596,160.547 92.5,161C 98.895,164.032 105.562,166.199 112.5,167.5C 123.401,165.941 134.068,163.441 144.5,160C 147.227,159.182 149.894,159.348 152.5,160.5C 131.401,195.49 100.734,208.657 60.5,200C 39.503,193.346 23.8363,180.346 13.5,161C 15.5478,159.168 17.8811,158.001 20.5,157.5 Z"/></g>
</svg>

<svg xmlns="http://www.w3.org/2000/svg" width="166" height="207" style="shape-rendering:geometricPrecision;text-rendering:geometricPrecision;image-rendering:optimizeQuality;fill-rule:evenodd;clip-rule:evenodd"><path style="opacity:1" d="M-.5-.5h166v134c-8.025 39.024-31.358 63.358-70 73h-26c-39.494-9.83-62.827-34.83-70-75V-.5z"/><path style="opacity:1" fill="#fea700" d="M3.5 3.5h158c.167 44.335 0 88.668-.5 133a20.64 20.64 0 0 1-2 6c-11.888-3.328-23.388-2.161-34.5 3.5a53.128 53.128 0 0 1-11 1.5 289.908 289.908 0 0 1-29.5-7 2315.989 2315.989 0 0 0-32.5 8l-24-7.5c-4-.667-8-.667-12 0a173.714 173.714 0 0 0-10 3.5 31.291 31.291 0 0 0-1.5-10c-.5-43.665-.667-87.332-.5-131z"/><path style="opacity:1" d="M79.5 15.5c24.588 2.834 33.421 16.167 26.5 40-5.53 7.845-13.03 12.178-22.5 13 .33 7.032-.003 14.032-1 21a3.646 3.646 0 0 1-1.5-1c-.5-6.658-.666-13.325-.5-20-15.298-1.963-23.298-10.63-24-26 .847-14.845 8.514-23.845 23-27z"/><path style="opacity:1" fill="#e10a15" d="M75.5 18.5h5c.166 4.678 0 9.345-.5 14A294.79 294.79 0 0 1 66.5 24c2.798-2.305 5.798-4.138 9-5.5zM83.5 18.5c5.6.075 10.6 1.909 15 5.5l-12 8a4.932 4.932 0 0 1-3 .5v-14zM63.5 26.5c5.306 2.988 10.64 5.988 16 9 1.333 4.667 1.333 9.333 0 14a337.547 337.547 0 0 0-21-13 35.16 35.16 0 0 1 5-10zM100.5 26.5c2.619 3.062 4.619 6.562 6 10.5a466.443 466.443 0 0 1-22 13.5c-1.333-4.667-1.333-9.333 0-14a128.706 128.706 0 0 0 16-10zM58.5 41.5a669.466 669.466 0 0 1 21.5 12c.828 4.371.66 8.705-.5 13-13.335-3-20.335-11.333-21-25zM105.5 41.5c1.381 8.435-1.619 15.269-9 20.5-3.975 2.576-8.308 4.076-13 4.5v-13a88.147 88.147 0 0 0 22-12z"/><path style="opacity:1" d="M41.5 73.5c18.4-.429 29.067 8.404 32 26.5-1.544 14.709-9.544 23.543-24 26.5a49.874 49.874 0 0 0-1 14h-4a49.874 49.874 0 0 0-1-14c-14.043-3.216-22.043-12.049-24-26.5 1.8-13.617 9.132-22.45 22-26.5zM112.5 73.5c15.289-1.445 25.789 4.889 31.5 19 2.73 18.226-4.77 29.559-22.5 34a49.87 49.87 0 0 0-1 14h-4a49.87 49.87 0 0 0-1-14c-19.523-5.036-26.69-17.369-21.5-37 4.167-7.668 10.333-13.001 18.5-16z"/><path style="opacity:1" fill="#00612a" d="M42.5 75.5c1.305 1.897 1.971 4.23 2 7l-1 7c-4.204-2.7-8.538-5.2-13-7.5 3.657-2.992 7.657-5.159 12-6.5zM120.5 75.5a42.158 42.158 0 0 1 14 6.5l-13 7.5a49.87 49.87 0 0 1-1-14zM48.5 76.5c5.425-.122 10.092 1.712 14 5.5l-13 8.5a49.873 49.873 0 0 1-1-14zM110.5 76.5h6a49.87 49.87 0 0 1-1 14l-13-8.5a59.683 59.683 0 0 1 8-5.5zM27.5 84.5a94.7 94.7 0 0 1 16 9c1.333 4.667 1.333 9.333 0 14a367.147 367.147 0 0 0-19.5-12c-.343-4.138.824-7.805 3.5-11zM64.5 84.5c3.442 2.885 5.276 6.551 5.5 11a625.818 625.818 0 0 0-20.5 12 28.725 28.725 0 0 1-.5-13 270.347 270.347 0 0 0 15.5-10zM99.5 84.5a246.189 246.189 0 0 1 16.5 10 28.717 28.717 0 0 1-.5 13L94.5 95a30.543 30.543 0 0 1 5-10.5zM135.5 84.5c3.566 2.092 5.899 5.258 7 9.5l-21 13.5c-1.333-4.667-1.333-9.333 0-14 4.731-3.024 9.398-6.024 14-9zM22.5 98.5a394.785 394.785 0 0 1 21.5 13c.499 3.986.666 7.986.5 12-14.375-2.046-21.708-10.379-22-25zM94.5 98.5a331.486 331.486 0 0 0 21 13 36.875 36.875 0 0 1 1 12c-7.752-.294-13.919-3.628-18.5-10-2.643-4.888-3.81-9.888-3.5-15zM141.5 98.5c1.632 11.86-3.368 20.027-15 24.5a18.453 18.453 0 0 1-6 .5 72.367 72.367 0 0 1 .5-12 596.449 596.449 0 0 0 20.5-13zM68.5 99.5c1.225.652 1.892 1.819 2 3.5-2.383 12.218-9.716 19.052-22 20.5a36.872 36.872 0 0 1 1-12 273.241 273.241 0 0 0 19-12z"/><path style="opacity:1" fill="#fefffe" d="M-.5 131.5c7.173 40.17 30.506 65.17 70 75h-70v-75zM165.5 133.5v73h-70c38.642-9.642 61.975-33.976 70-73z"/><path style="opacity:1" fill="#002b72" d="M17.5 142.5a40.911 40.911 0 0 1 9 .5 134.273 134.273 0 0 0 26 7.5 681.676 681.676 0 0 0 30.5-8 107.73 107.73 0 0 1 19.5 5.5 55.634 55.634 0 0 0 19 1 314.423 314.423 0 0 0 19-6c5-.667 10-.667 15 0 1.68.347 2.68 1.347 3 3-.968 4.442-2.968 8.276-6 11.5l-2-1a913.38 913.38 0 0 1-37 8 489.864 489.864 0 0 0-30-7 294.71 294.71 0 0 1-30 5c-7.441-.048-14.441-1.881-21-5.5-6.881-2.254-13.548-1.754-20 1.5-2.415-2.879-4.081-6.212-5-10 2.739-3.034 6.072-5.034 10-6z"/><path style="opacity:1" fill="#fea700" d="M20.5 157.5c3.72.064 7.387.564 11 1.5 6.696 3.788 13.863 5.955 21.5 6.5a266.406 266.406 0 0 0 29.5-6c3.326.547 6.66 1.047 10 1.5a81.603 81.603 0 0 0 20 6.5 186.034 186.034 0 0 0 32-7.5c2.727-.818 5.394-.652 8 .5-21.099 34.99-51.766 48.157-92 39.5-20.997-6.654-36.664-19.654-47-39 2.048-1.832 4.381-2.999 7-3.5z"/></svg>
